X:4159
L:1/8
M:3/4
K:A
 v[A,E]2 (cE) Ac | [A,E]2 (cE) Ac | E2 (dc) BA | GB BE GB | A2 (fe) cA | [A,E]2 (cE) Ac | 
 [A,E]2 (cE) Ac | E2 (dc) BA | GB BE GB |1 A2 z2 A2 :|2 A2 z2 |: (ued) | (cd cA) (ce) | a4 (ba) | 
 (ga gf) (gb) | e4 (dc) | de dc d2 | E2 G2 B2 | Bd cB c2 | A2 c2 e2 | ed dc d2 | E2 G2 (3(BcB) | 
 A2 (fe) dc | B2 (dc) BA | GB BE GB | A2 fe d2 | c2 (ag) fe | d2 (fe) dc | B2 (dc) BA | 
 (GB) (BE) GB | [A,EA]2 z2 :: (ed) | c2 cc c z | A2 (ce) (ea) | f2 dd d z | B2 (df) (3(fag) | 
 e2 cc cc | B2 df ec | A2 (ce) dB | G2 (Bd) BG | Ac ef ec | d2 (fa) fd | c2 (ea) ec | B2 (df) ec | 
 A2 (ce) dB | G2 (Bd) BG |1 [A,EA]2 z2 :|2 [A,EA]2 z2 z2 |]

